static/images/create-project/no-applications.svg

<svg width="113" height="139" viewBox="0 0 113 139" fill="none" xmlns="http://www.w3.org/2000/svg">
<rect width="111" height="98" rx="49" fill="#387800" fill-opacity="0.1"/>
<path d="M55.9997 75.6663C70.7273 75.6663 82.6663 63.7273 82.6663 48.9997C82.6663 34.2721 70.7273 22.333 55.9997 22.333C41.2721 22.333 29.333 34.2721 29.333 48.9997C29.333 63.7273 41.2721 75.6663 55.9997 75.6663Z" stroke="#387800" stroke-width="3" stroke-linecap="round" stroke-linejoin="round"/>
<path d="M37.1465 30.1465L74.8532 67.8532" stroke="#387800" stroke-width="3" stroke-linecap="round" stroke-linejoin="round"/>
<path d="M57.5 34H47C46.2044 34 45.4413 34.3161 44.8787 34.8787C44.3161 35.4413 44 36.2044 44 37V61C44 61.7956 44.3161 62.5587 44.8787 63.1213C45.4413 63.6839 46.2044 64 47 64H65C65.7956 64 66.5587 63.6839 67.1213 63.1213C67.6839 62.5587 68 61.7956 68 61V44.5L57.5 34Z" stroke="#387800" stroke-width="3" stroke-linecap="round" stroke-linejoin="round"/>
<path d="M57.5 34V44.5H68" stroke="#387800" stroke-width="3" stroke-linecap="round" stroke-linejoin="round"/>
<path d="M14.1 134C13.6013 133.164 13.044 132.269 12.428 131.316C11.812 130.348 11.174 129.38 10.514 128.412C9.854 127.429 9.17933 126.483 8.49 125.574C7.81533 124.65 7.17 123.821 6.554 123.088V134H3.826V118.754H6.092C6.67867 119.37 7.30933 120.103 7.984 120.954C8.65867 121.79 9.33333 122.663 10.008 123.572C10.6973 124.481 11.3573 125.398 11.988 126.322C12.6333 127.231 13.2053 128.082 13.704 128.874V118.754H16.454V134H14.1ZM30.3852 128.236C30.3852 129.145 30.2532 129.974 29.9892 130.722C29.7252 131.47 29.3512 132.108 28.8672 132.636C28.3832 133.164 27.7965 133.575 27.1072 133.868C26.4325 134.161 25.6845 134.308 24.8632 134.308C24.0418 134.308 23.2938 134.161 22.6192 133.868C21.9445 133.575 21.3652 133.164 20.8812 132.636C20.3972 132.108 20.0158 131.47 19.7372 130.722C19.4732 129.974 19.3412 129.145 19.3412 128.236C19.3412 127.327 19.4732 126.505 19.7372 125.772C20.0158 125.024 20.3972 124.386 20.8812 123.858C21.3798 123.33 21.9665 122.927 22.6412 122.648C23.3158 122.355 24.0565 122.208 24.8632 122.208C25.6698 122.208 26.4105 122.355 27.0852 122.648C27.7745 122.927 28.3612 123.33 28.8452 123.858C29.3292 124.386 29.7032 125.024 29.9672 125.772C30.2458 126.505 30.3852 127.327 30.3852 128.236ZM27.6572 128.236C27.6572 127.092 27.4078 126.19 26.9092 125.53C26.4252 124.855 25.7432 124.518 24.8632 124.518C23.9832 124.518 23.2938 124.855 22.7952 125.53C22.3112 126.19 22.0692 127.092 22.0692 128.236C22.0692 129.395 22.3112 130.311 22.7952 130.986C23.2938 131.661 23.9832 131.998 24.8632 131.998C25.7432 131.998 26.4252 131.661 26.9092 130.986C27.4078 130.311 27.6572 129.395 27.6572 128.236ZM33.1276 122.868C33.6409 122.721 34.3083 122.582 35.1296 122.45C35.9509 122.318 36.8603 122.252 37.8576 122.252C38.7963 122.252 39.5809 122.384 40.2116 122.648C40.8423 122.897 41.3409 123.257 41.7076 123.726C42.0889 124.181 42.3529 124.738 42.4996 125.398C42.6609 126.043 42.7416 126.755 42.7416 127.532V134H40.0796V127.95C40.0796 127.334 40.0356 126.813 39.9476 126.388C39.8743 125.948 39.7423 125.596 39.5516 125.332C39.3756 125.053 39.1263 124.855 38.8036 124.738C38.4956 124.606 38.1143 124.54 37.6596 124.54C37.3223 124.54 36.9703 124.562 36.6036 124.606C36.2369 124.65 35.9656 124.687 35.7896 124.716V134H33.1276V122.868ZM45.3587 128.302C45.3587 127.29 45.5054 126.403 45.7987 125.64C46.1067 124.877 46.5101 124.247 47.0087 123.748C47.5074 123.235 48.0794 122.853 48.7247 122.604C49.3701 122.34 50.0301 122.208 50.7047 122.208C52.2887 122.208 53.5207 122.699 54.4007 123.682C55.2954 124.665 55.7427 126.131 55.7427 128.082C55.7427 128.229 55.7354 128.397 55.7207 128.588C55.7207 128.764 55.7134 128.925 55.6987 129.072H48.1087C48.1821 129.996 48.5047 130.715 49.0767 131.228C49.6634 131.727 50.5067 131.976 51.6067 131.976C52.2521 131.976 52.8387 131.917 53.3667 131.8C53.9094 131.683 54.3347 131.558 54.6427 131.426L54.9947 133.604C54.8481 133.677 54.6427 133.758 54.3787 133.846C54.1294 133.919 53.8361 133.985 53.4987 134.044C53.1761 134.117 52.8241 134.176 52.4427 134.22C52.0614 134.264 51.6727 134.286 51.2767 134.286C50.2647 134.286 49.3847 134.139 48.6367 133.846C47.8887 133.538 47.2727 133.12 46.7887 132.592C46.3047 132.049 45.9454 131.419 45.7107 130.7C45.4761 129.967 45.3587 129.167 45.3587 128.302ZM53.0807 127.114C53.0807 126.747 53.0294 126.403 52.9267 126.08C52.8241 125.743 52.6701 125.457 52.4647 125.222C52.2741 124.973 52.0321 124.782 51.7387 124.65C51.4601 124.503 51.1227 124.43 50.7267 124.43C50.3161 124.43 49.9567 124.511 49.6487 124.672C49.3407 124.819 49.0767 125.017 48.8567 125.266C48.6514 125.515 48.4901 125.801 48.3727 126.124C48.2554 126.447 48.1747 126.777 48.1307 127.114H53.0807ZM73.0939 122.494C71.9059 126.865 70.5272 130.825 68.9579 134.374C68.6645 135.034 68.3639 135.599 68.0559 136.068C67.7479 136.537 67.4032 136.926 67.0219 137.234C66.6405 137.542 66.2152 137.762 65.7459 137.894C65.2765 138.041 64.7339 138.114 64.1179 138.114C63.7072 138.114 63.2965 138.07 62.8859 137.982C62.4899 137.894 62.1892 137.799 61.9839 137.696L62.4679 135.562C62.9959 135.767 63.5165 135.87 64.0299 135.87C64.7192 135.87 65.2545 135.701 65.6359 135.364C66.0319 135.041 66.3765 134.535 66.6699 133.846C65.8339 132.233 65.0272 130.473 64.2499 128.566C63.4872 126.659 62.8052 124.635 62.2039 122.494H65.0419C65.1885 123.11 65.3645 123.777 65.5699 124.496C65.7899 125.215 66.0245 125.948 66.2739 126.696C66.5232 127.429 66.7872 128.163 67.0659 128.896C67.3445 129.629 67.6232 130.311 67.9019 130.942C68.3712 129.637 68.8112 128.251 69.2219 126.784C69.6325 125.303 70.0065 123.873 70.3439 122.494H73.0939ZM74.4701 128.302C74.4701 127.29 74.6167 126.403 74.9101 125.64C75.2181 124.877 75.6214 124.247 76.1201 123.748C76.6187 123.235 77.1907 122.853 77.8361 122.604C78.4814 122.34 79.1414 122.208 79.8161 122.208C81.4001 122.208 82.6321 122.699 83.5121 123.682C84.4067 124.665 84.8541 126.131 84.8541 128.082C84.8541 128.229 84.8467 128.397 84.8321 128.588C84.8321 128.764 84.8247 128.925 84.8101 129.072H77.2201C77.2934 129.996 77.6161 130.715 78.1881 131.228C78.7747 131.727 79.6181 131.976 80.7181 131.976C81.3634 131.976 81.9501 131.917 82.4781 131.8C83.0207 131.683 83.4461 131.558 83.7541 131.426L84.1061 133.604C83.9594 133.677 83.7541 133.758 83.4901 133.846C83.2407 133.919 82.9474 133.985 82.6101 134.044C82.2874 134.117 81.9354 134.176 81.5541 134.22C81.1727 134.264 80.7841 134.286 80.3881 134.286C79.3761 134.286 78.4961 134.139 77.7481 133.846C77.0001 133.538 76.3841 133.12 75.9001 132.592C75.4161 132.049 75.0567 131.419 74.8221 130.7C74.5874 129.967 74.4701 129.167 74.4701 128.302ZM82.1921 127.114C82.1921 126.747 82.1407 126.403 82.0381 126.08C81.9354 125.743 81.7814 125.457 81.5761 125.222C81.3854 124.973 81.1434 124.782 80.8501 124.65C80.5714 124.503 80.2341 124.43 79.8381 124.43C79.4274 124.43 79.0681 124.511 78.7601 124.672C78.4521 124.819 78.1881 125.017 77.9681 125.266C77.7627 125.515 77.6014 125.801 77.4841 126.124C77.3667 126.447 77.2861 126.777 77.2421 127.114H82.1921ZM87.5444 119.458L90.2064 119.018V122.494H94.2984V124.716H90.2064V129.402C90.2064 130.326 90.3531 130.986 90.6464 131.382C90.9398 131.778 91.4384 131.976 92.1424 131.976C92.6264 131.976 93.0518 131.925 93.4184 131.822C93.7998 131.719 94.1004 131.624 94.3204 131.536L94.7604 133.648C94.4524 133.78 94.0491 133.912 93.5504 134.044C93.0518 134.191 92.4651 134.264 91.7904 134.264C90.9691 134.264 90.2798 134.154 89.7224 133.934C89.1798 133.714 88.7471 133.399 88.4244 132.988C88.1018 132.563 87.8744 132.057 87.7424 131.47C87.6104 130.869 87.5444 130.187 87.5444 129.424V119.458ZM100.057 132.548C100.057 133.061 99.8811 133.479 99.5291 133.802C99.1918 134.125 98.7811 134.286 98.2971 134.286C97.7984 134.286 97.3804 134.125 97.0431 133.802C96.7058 133.479 96.5371 133.061 96.5371 132.548C96.5371 132.035 96.7058 131.617 97.0431 131.294C97.3804 130.957 97.7984 130.788 98.2971 130.788C98.7811 130.788 99.1918 130.957 99.5291 131.294C99.8811 131.617 100.057 132.035 100.057 132.548ZM105.901 132.548C105.901 133.061 105.725 133.479 105.373 133.802C105.036 134.125 104.625 134.286 104.141 134.286C103.642 134.286 103.224 134.125 102.887 133.802C102.55 133.479 102.381 133.061 102.381 132.548C102.381 132.035 102.55 131.617 102.887 131.294C103.224 130.957 103.642 130.788 104.141 130.788C104.625 130.788 105.036 130.957 105.373 131.294C105.725 131.617 105.901 132.035 105.901 132.548ZM111.745 132.548C111.745 133.061 111.569 133.479 111.217 133.802C110.879 134.125 110.469 134.286 109.985 134.286C109.486 134.286 109.068 134.125 108.731 133.802C108.393 133.479 108.225 133.061 108.225 132.548C108.225 132.035 108.393 131.617 108.731 131.294C109.068 130.957 109.486 130.788 109.985 130.788C110.469 130.788 110.879 130.957 111.217 131.294C111.569 131.617 111.745 132.035 111.745 132.548Z" fill="#387800"/>
</svg>

<svg width="113" height="139" fill="none" xmlns="http://www.w3.org/2000/svg"><rect width="111" height="98" rx="49" fill="#387800" fill-opacity=".1"/><path d="M56 75.666c14.727 0 26.666-11.939 26.666-26.666 0-14.728-11.939-26.667-26.666-26.667-14.728 0-26.667 11.94-26.667 26.667 0 14.727 11.94 26.666 26.667 26.666zM37.147 30.146l37.706 37.707" stroke="#387800" stroke-width="3" stroke-linecap="round" stroke-linejoin="round"/><path d="M57.5 34H47a3 3 0 00-3 3v24a3 3 0 003 3h18a3 3 0 003-3V44.5L57.5 34z" stroke="#387800" stroke-width="3" stroke-linecap="round" stroke-linejoin="round"/><path d="M57.5 34v10.5H68" stroke="#387800" stroke-width="3" stroke-linecap="round" stroke-linejoin="round"/><path d="M14.1 134a88.294 88.294 0 00-1.672-2.684 109.76 109.76 0 00-1.914-2.904 60.598 60.598 0 00-2.024-2.838 46.49 46.49 0 00-1.936-2.486V134H3.826v-15.246h2.266a32.338 32.338 0 011.892 2.2c.675.836 1.35 1.709 2.024 2.618a67.97 67.97 0 011.98 2.75 55.83 55.83 0 011.716 2.552v-10.12h2.75V134H14.1zm16.285-5.764c0 .909-.132 1.738-.396 2.486a5.503 5.503 0 01-1.122 1.914 5.016 5.016 0 01-1.76 1.232c-.674.293-1.422.44-2.244.44-.821 0-1.57-.147-2.244-.44a5.066 5.066 0 01-1.738-1.232 5.781 5.781 0 01-1.144-1.914c-.264-.748-.396-1.577-.396-2.486 0-.909.132-1.731.396-2.464a5.781 5.781 0 011.144-1.914 5.043 5.043 0 011.76-1.21 5.518 5.518 0 012.222-.44 5.52 5.52 0 012.222.44 4.79 4.79 0 011.76 1.21 5.503 5.503 0 011.122 1.914c.279.733.418 1.555.418 2.464zm-2.728 0c0-1.144-.25-2.046-.748-2.706-.484-.675-1.166-1.012-2.046-1.012-.88 0-1.57.337-2.068 1.012-.484.66-.726 1.562-.726 2.706 0 1.159.242 2.075.726 2.75.499.675 1.188 1.012 2.068 1.012.88 0 1.562-.337 2.046-1.012.499-.675.748-1.591.748-2.75zm5.47-5.368c.514-.147 1.181-.286 2.003-.418.82-.132 1.73-.198 2.728-.198.938 0 1.723.132 2.354.396.63.249 1.129.609 1.496 1.078.38.455.645 1.012.792 1.672.16.645.242 1.357.242 2.134V134H40.08v-6.05c0-.616-.044-1.137-.132-1.562-.074-.44-.206-.792-.396-1.056a1.435 1.435 0 00-.748-.594c-.308-.132-.69-.198-1.144-.198-.338 0-.69.022-1.056.066-.367.044-.638.081-.814.11V134h-2.662v-11.132zm12.232 5.434c0-1.012.146-1.899.44-2.662.308-.763.711-1.393 1.21-1.892a4.767 4.767 0 011.716-1.144 5.186 5.186 0 011.98-.396c1.584 0 2.816.491 3.696 1.474.894.983 1.342 2.449 1.342 4.4 0 .147-.008.315-.022.506 0 .176-.008.337-.022.484h-7.59c.073.924.396 1.643.968 2.156.586.499 1.43.748 2.53.748.645 0 1.232-.059 1.76-.176.542-.117.968-.242 1.276-.374l.352 2.178a4.96 4.96 0 01-.616.242c-.25.073-.543.139-.88.198a10.165 10.165 0 01-2.222.242c-1.012 0-1.892-.147-2.64-.44-.748-.308-1.364-.726-1.848-1.254a5.26 5.26 0 01-1.078-1.892 7.833 7.833 0 01-.352-2.398zm7.722-1.188a3.39 3.39 0 00-.154-1.034 2.303 2.303 0 00-.462-.858 1.86 1.86 0 00-.726-.572c-.279-.147-.616-.22-1.012-.22-.41 0-.77.081-1.078.242a2.456 2.456 0 00-.792.594 2.885 2.885 0 00-.484.858 4.66 4.66 0 00-.242.99h4.95zm20.013-4.62c-1.188 4.371-2.567 8.331-4.136 11.88-.293.66-.594 1.225-.902 1.694a5.032 5.032 0 01-1.034 1.166 3.534 3.534 0 01-1.276.66c-.47.147-1.012.22-1.628.22-.41 0-.821-.044-1.232-.132-.396-.088-.697-.183-.902-.286l.484-2.134a4.295 4.295 0 001.562.308c.69 0 1.224-.169 1.606-.506.396-.323.74-.829 1.034-1.518a63.913 63.913 0 01-2.42-5.28 60.128 60.128 0 01-2.046-6.072h2.838c.147.616.323 1.283.528 2.002.22.719.455 1.452.704 2.2.25.733.513 1.467.792 2.2.278.733.557 1.415.836 2.046.47-1.305.91-2.691 1.32-4.158.41-1.481.785-2.911 1.122-4.29h2.75zm1.376 5.808c0-1.012.147-1.899.44-2.662.308-.763.711-1.393 1.21-1.892a4.765 4.765 0 011.716-1.144 5.185 5.185 0 011.98-.396c1.584 0 2.816.491 3.696 1.474.895.983 1.342 2.449 1.342 4.4 0 .147-.007.315-.022.506 0 .176-.007.337-.022.484h-7.59c.073.924.396 1.643.968 2.156.587.499 1.43.748 2.53.748a8.15 8.15 0 001.76-.176c.543-.117.968-.242 1.276-.374l.352 2.178a4.967 4.967 0 01-.616.242c-.25.073-.543.139-.88.198a10.166 10.166 0 01-2.222.242c-1.012 0-1.892-.147-2.64-.44-.748-.308-1.364-.726-1.848-1.254a5.259 5.259 0 01-1.078-1.892 7.83 7.83 0 01-.352-2.398zm7.722-1.188c0-.367-.051-.711-.154-1.034a2.306 2.306 0 00-.462-.858 1.861 1.861 0 00-.726-.572c-.279-.147-.616-.22-1.012-.22-.41 0-.77.081-1.078.242a2.456 2.456 0 00-.792.594 2.88 2.88 0 00-.484.858 4.653 4.653 0 00-.242.99h4.95zm5.352-7.656l2.662-.44v3.476h4.092v2.222h-4.092v4.686c0 .924.147 1.584.44 1.98.294.396.792.594 1.496.594.484 0 .91-.051 1.276-.154.382-.103.682-.198.902-.286l.44 2.112a9.017 9.017 0 01-1.21.396c-.498.147-1.085.22-1.76.22-.82 0-1.51-.11-2.068-.33-.542-.22-.975-.535-1.298-.946a3.884 3.884 0 01-.682-1.518 9.581 9.581 0 01-.198-2.046v-9.966zm12.513 13.09c0 .513-.176.931-.528 1.254a1.715 1.715 0 01-1.232.484c-.499 0-.917-.161-1.254-.484-.337-.323-.506-.741-.506-1.254s.169-.931.506-1.254a1.704 1.704 0 011.254-.506c.484 0 .895.169 1.232.506.352.323.528.741.528 1.254zm5.844 0c0 .513-.176.931-.528 1.254a1.714 1.714 0 01-1.232.484c-.499 0-.917-.161-1.254-.484-.337-.323-.506-.741-.506-1.254s.169-.931.506-1.254a1.703 1.703 0 011.254-.506c.484 0 .895.169 1.232.506.352.323.528.741.528 1.254zm5.844 0c0 .513-.176.931-.528 1.254a1.716 1.716 0 01-1.232.484c-.499 0-.917-.161-1.254-.484-.338-.323-.506-.741-.506-1.254s.168-.931.506-1.254a1.703 1.703 0 011.254-.506c.484 0 .894.169 1.232.506.352.323.528.741.528 1.254z" fill="#387800"/></svg>
